X:63
T:Bois y Cware - The Quarry Boys
M:2/4
L:1/8
Q:180
C:Trad.
R:Processional
N:Collected by John Glennydd in Llanfihangel ar Arth, Carmarthenshire
K:G
B>A GD | EG D2 | DB A2 | DA G2 | B>A GD |
EG D2 | DB AF | G2 G2 :||: B/2A/2G/2A/2 B/2A/2G/2A/2 |
| Bd d2 | cc A2 | BB G2 | B/2A/2G/2A/2 B/2A/2G/2A/2|
Bd d2 | cc AF | G2 G2 :||
